svg/Pictogram/pictograms-nps-water-hand_launch-small_boat_launch.svg

<svg xmlns="http://www.w3.org/2000/svg" viewBox="0 0 256 256"><path d="m0 0c-.541 0-.981-.44-.981-.981v-7.525c0-.541.44-.981.981-.981h7.524c.541 0 .982.44.982.981v7.525c0 .541-.441.981-.982.981h-7.524" fill="#fff" transform="matrix(25.88997 0 0-25.88997 30.592 5.191)"/><path d="m0 0c.652 0 1.182.529 1.182 1.182v7.524c0 .652-.53 1.182-1.182 1.182h-7.524c-.655 0-1.182-.53-1.182-1.182v-7.524c0-.653.527-1.182 1.182-1.182h7.524" transform="matrix(25.88997 0 0-25.88997 225.4 256)"/><g fill="#fff"><path d="m0 0c.271.025.469.268.443.536-.027.272-.267.471-.539.443-.271-.025-.468-.267-.443-.539.027-.268.268-.467.539-.44" transform="matrix(25.88997 0 0-25.88997 106.31 60.966)"/><path d="m0 0l-1.266 1.404c-.017.02-.05.051-.074.065-.166.136-.408.164-.603.045l-1.169-.715c-.155-.094-.244-.256-.252-.424-.004-.033-.002-.066.006-.1 0-.002.002-.004.002-.005.003-.022.005-.043.015-.063v-.002c.012-.043.029-.086.053-.125.006-.008.012-.014.017-.021l.284-.6-.612-.769c-.105-.132-.084-.326.051-.433.133-.106.326-.084.432.051l.73.917c.001.013.014.027.022.041.011.019.023.037.029.058.006.02.008.039.001.059.002.019.006.039.004.058-.002.022-.001.043-.016.065v.002c.166-.123.323-.24.399-.297-.003-.245-.021-1.175-.021-1.177 0-.168.133-.305.303-.308.17-.002.31.132.314.302l.024 1.331c.002.1-.043.194-.125.254l-.724.537.892.549.918-1.021c.087-.1.24-.108.339-.018.1.09.108.242.018.34" transform="matrix(25.88997 0 0-25.88997 131.7 100.31)"/><path d="m0 0c.172 0 .336.037.484.104.151.07.321.111.496.111.178 0 .348-.041.499-.111.146-.067.312-.104.483-.104.172 0 .336.037.482.104.151.07.321.111.498.111.178 0 .348-.041.498-.111.147-.067.313-.104.485-.104.172 0 .336.037.482.104.151.07.321.111.498.111.178 0 .348-.041.498-.111.147-.067.313-.104.485-.104.17 0 .336.037.482.104.151.07.32.111.498.111.178 0 .348-.041.498-.111.147-.067.313-.104.485-.104v.725c-.172 0-.338.037-.485.103-.15.069-.32.11-.498.11-.178 0-.347-.041-.498-.11-.146-.066-.312-.103-.482-.103-.172 0-.338.037-.485.103-.15.069-.32.11-.498.11-.177 0-.347-.041-.498-.11-.146-.066-.31-.103-.482-.103-.172 0-.338.037-.485.103-.15.069-.32.11-.498.11-.177 0-.347-.041-.498-.11-.146-.066-.31-.103-.482-.103-.171 0-.337.037-.483.103-.151.069-.321.11-.499.11-.175 0-.345-.041-.496-.11-.148-.066-.312-.103-.484-.103v-.725" transform="matrix(25.88997 0 0-25.88997 28.671 229.61)"/><path d="m0 0c.129 0 .256.029.375.082.189.088.398.135.605.135.209 0 .415-.045.604-.133.119-.055.25-.084.378-.084.129 0 .256.029.375.082.189.088.398.135.605.135.207 0 .416-.047.604-.133.119-.055.25-.084.379-.084.129 0 .256.029.375.082.123.057.256.096.388.115l-.66.477-.953.025-.67.463-1.26.488-1.174.155.008-1.805h.021" transform="matrix(25.88997 0 0-25.88997 28.671 195.3)"/><path d="m0 0c0 .063.049.111.111.111.061 0 .112-.048.112-.111 0-.061-.051-.111-.112-.111-.062 0-.111.05-.111.111m1.895-1.051l-1.737.826c.108.022.19.112.19.225 0 .131-.106.236-.237.236-.131 0-.236-.105-.236-.236 0-.037.012-.072.027-.104l-1.754.833c-.283.135-.615.02-.757-.254l4.783-2.274c.123.283.002.615-.279.748" transform="matrix(25.88997 0 0-25.88997 178.78 137.19)"/><path d="m0 0c-.041-.248.08-.502.318-.615l3.746-1.781c.239-.114.514-.047.678.14l-4.742 2.256" transform="matrix(25.88997 0 0-25.88997 109.75 129.3)"/></g></svg>

<?xml version="1.0" encoding="UTF-8" standalone="no"?>
<!-- Created with Inkscape (http://www.inkscape.org/) -->
<svg
   xmlns:dc="http://purl.org/dc/elements/1.1/"
   xmlns:cc="http://creativecommons.org/ns#"
   xmlns:rdf="http://www.w3.org/1999/02/22-rdf-syntax-ns#"
   xmlns:svg="http://www.w3.org/2000/svg"
   xmlns="http://www.w3.org/2000/svg"
   xmlns:sodipodi="http://sodipodi.sourceforge.net/DTD/sodipodi-0.dtd"
   xmlns:inkscape="http://www.inkscape.org/namespaces/inkscape"
   width="256"
   height="256"
   id="svg5294"
   sodipodi:version="0.32"
   inkscape:version="0.46"
   version="1.0"
   sodipodi:docname="pictograms-nps-water-hand_launch-small_boat_launch-2.svg"
   inkscape:output_extension="org.inkscape.output.svg.inkscape">
  <defs
     id="defs5296">
    <inkscape:perspective
       sodipodi:type="inkscape:persp3d"
       inkscape:vp_x="0 : 526.18109 : 1"
       inkscape:vp_y="0 : 1000 : 0"
       inkscape:vp_z="744.09448 : 526.18109 : 1"
       inkscape:persp3d-origin="372.04724 : 350.78739 : 1"
       id="perspective5302" />
  </defs>
  <sodipodi:namedview
     id="base"
     pagecolor="#ffffff"
     bordercolor="#666666"
     borderopacity="1.0"
     gridtolerance="10000"
     guidetolerance="10"
     objecttolerance="10"
     inkscape:pageopacity="0.0"
     inkscape:pageshadow="2"
     inkscape:zoom="1.4"
     inkscape:cx="124.57192"
     inkscape:cy="112.12174"
     inkscape:document-units="px"
     inkscape:current-layer="layer1"
     showgrid="false"
     inkscape:window-width="747"
     inkscape:window-height="674"
     inkscape:window-x="0"
     inkscape:window-y="309" />
  <metadata
     id="metadata5299">
    <rdf:RDF>
      <cc:Work
         rdf:about="">
        <dc:format>image/svg+xml</dc:format>
        <dc:type
           rdf:resource="http://purl.org/dc/dcmitype/StillImage" />
      </cc:Work>
    </rdf:RDF>
  </metadata>
  <g
     inkscape:label="Layer 1"
     inkscape:groupmode="layer"
     id="layer1">
    <g
       id="g6068"
       transform="matrix(25.889968,0,0,-25.889968,30.591793,5.190835)">
      <path
         d="M 0,0 C -0.541,0 -0.981,-0.44 -0.981,-0.981 L -0.981,-8.506 C -0.981,-9.047 -0.541,-9.487 0,-9.487 L 7.524,-9.487 C 8.065,-9.487 8.506,-9.047 8.506,-8.506 L 8.506,-0.981 C 8.506,-0.44 8.065,0 7.524,0 L 0,0 z"
         style="fill:#ffffff;fill-opacity:1;fill-rule:nonzero;stroke:none"
         id="path6070" />
    </g>
    <g
       id="g6072"
       transform="matrix(25.889968,0,0,-25.889968,225.39806,256)">
      <path
         d="M 0,0 C 0.652,0 1.182,0.529 1.182,1.182 L 1.182,8.706 C 1.182,9.358 0.652,9.888 0,9.888 L -7.524,9.888 C -8.179,9.888 -8.706,9.358 -8.706,8.706 L -8.706,1.182 C -8.706,0.529 -8.179,0 -7.524,0 L 0,0 z"
         style="fill:#000000;fill-opacity:1;fill-rule:nonzero;stroke:none"
         id="path6074" />
    </g>
    <g
       id="g6076"
       transform="matrix(25.889968,0,0,-25.889968,106.31477,60.965696)">
      <path
         d="M 0,0 C 0.271,0.025 0.469,0.268 0.443,0.536 C 0.416,0.808 0.176,1.007 -0.096,0.979 C -0.367,0.954 -0.564,0.712 -0.539,0.44 C -0.512,0.172 -0.271,-0.027 0,0"
         style="fill:#ffffff;fill-opacity:1;fill-rule:nonzero;stroke:none"
         id="path6078" />
    </g>
    <g
       id="g6080"
       transform="matrix(25.889968,0,0,-25.889968,131.69978,100.3054)">
      <path
         d="M 0,0 L -1.266,1.404 C -1.283,1.424 -1.316,1.455 -1.34,1.469 C -1.506,1.605 -1.748,1.633 -1.943,1.514 L -3.112,0.799 C -3.267,0.705 -3.356,0.543 -3.364,0.375 C -3.368,0.342 -3.366,0.309 -3.358,0.275 C -3.358,0.273 -3.356,0.271 -3.356,0.27 C -3.353,0.248 -3.351,0.227 -3.341,0.207 L -3.341,0.205 C -3.329,0.162 -3.312,0.119 -3.288,0.08 C -3.282,0.072 -3.276,0.066 -3.271,0.059 L -2.987,-0.541 L -3.599,-1.31 C -3.704,-1.442 -3.683,-1.636 -3.548,-1.743 C -3.415,-1.849 -3.222,-1.827 -3.116,-1.692 L -2.386,-0.775 C -2.376,-0.762 -2.372,-0.748 -2.364,-0.734 C -2.353,-0.715 -2.341,-0.697 -2.335,-0.676 C -2.329,-0.656 -2.327,-0.637 -2.325,-0.617 C -2.323,-0.598 -2.319,-0.578 -2.321,-0.559 C -2.323,-0.537 -2.331,-0.516 -2.337,-0.494 L -2.337,-0.492 C -2.171,-0.615 -2.014,-0.732 -1.938,-0.789 C -1.941,-1.034 -1.959,-1.964 -1.959,-1.966 C -1.959,-2.134 -1.826,-2.271 -1.656,-2.274 C -1.486,-2.276 -1.346,-2.142 -1.342,-1.972 L -1.318,-0.641 C -1.316,-0.541 -1.361,-0.447 -1.443,-0.387 L -2.167,0.15 L -1.275,0.699 L -0.357,-0.322 C -0.27,-0.422 -0.117,-0.43 -0.018,-0.34 C 0.082,-0.25 0.09,-0.098 0,0"
         style="fill:#ffffff;fill-opacity:1;fill-rule:nonzero;stroke:none"
         id="path6082" />
    </g>
    <g
       id="g6084"
       transform="matrix(25.889968,0,0,-25.889968,28.67055,229.60507)">
      <path
         d="M 0,0 C 0.172,0 0.336,0.037 0.484,0.104 C 0.635,0.174 0.805,0.215 0.98,0.215 C 1.158,0.215 1.328,0.174 1.479,0.104 C 1.625,0.037 1.791,0 1.962,0 C 2.134,0 2.298,0.037 2.444,0.104 C 2.595,0.174 2.765,0.215 2.942,0.215 C 3.12,0.215 3.29,0.174 3.44,0.104 C 3.587,0.037 3.753,0 3.925,0 C 4.097,0 4.261,0.037 4.407,0.104 C 4.558,0.174 4.728,0.215 4.905,0.215 C 5.083,0.215 5.253,0.174 5.403,0.104 C 5.55,0.037 5.716,0 5.888,0 C 6.058,0 6.224,0.037 6.37,0.104 C 6.521,0.174 6.69,0.215 6.868,0.215 C 7.046,0.215 7.216,0.174 7.366,0.104 C 7.513,0.037 7.679,0 7.851,0 L 7.851,0.725 C 7.679,0.725 7.513,0.762 7.366,0.828 C 7.216,0.897 7.046,0.938 6.868,0.938 C 6.69,0.938 6.521,0.897 6.37,0.828 C 6.224,0.762 6.058,0.725 5.888,0.725 C 5.716,0.725 5.55,0.762 5.403,0.828 C 5.253,0.897 5.083,0.938 4.905,0.938 C 4.728,0.938 4.558,0.897 4.407,0.828 C 4.261,0.762 4.097,0.725 3.925,0.725 C 3.753,0.725 3.587,0.762 3.44,0.828 C 3.29,0.897 3.12,0.938 2.942,0.938 C 2.765,0.938 2.595,0.897 2.444,0.828 C 2.298,0.762 2.134,0.725 1.962,0.725 C 1.791,0.725 1.625,0.762 1.479,0.828 C 1.328,0.897 1.158,0.938 0.98,0.938 C 0.805,0.938 0.635,0.897 0.484,0.828 C 0.336,0.762 0.172,0.725 0,0.725 L 0,0 z"
         style="fill:#ffffff;fill-opacity:1;fill-rule:nonzero;stroke:none"
         id="path6086" />
    </g>
    <g
       id="g6088"
       transform="matrix(25.889968,0,0,-25.889968,28.67055,195.29548)">
      <path
         d="M 0,0 C 0.129,0 0.256,0.029 0.375,0.082 C 0.564,0.17 0.773,0.217 0.98,0.217 C 1.189,0.217 1.395,0.172 1.584,0.084 C 1.703,0.029 1.834,0 1.962,0 C 2.091,0 2.218,0.029 2.337,0.082 C 2.526,0.17 2.735,0.217 2.942,0.217 C 3.149,0.217 3.358,0.17 3.546,0.084 C 3.665,0.029 3.796,0 3.925,0 C 4.054,0 4.181,0.029 4.3,0.082 C 4.423,0.139 4.556,0.178 4.688,0.197 L 4.028,0.674 L 3.075,0.699 L 2.405,1.162 L 1.145,1.65 L -0.029,1.805 L -0.021,0 L 0,0 z"
         style="fill:#ffffff;fill-opacity:1;fill-rule:nonzero;stroke:none"
         id="path6090" />
    </g>
    <g
       id="g6092"
       transform="matrix(25.889968,0,0,-25.889968,178.77561,137.19384)">
      <path
         d="M 0,0 C 0,0.063 0.049,0.111 0.111,0.111 C 0.172,0.111 0.223,0.063 0.223,0 C 0.223,-0.061 0.172,-0.111 0.111,-0.111 C 0.049,-0.111 0,-0.061 0,0 M 1.895,-1.051 L 0.158,-0.225 C 0.266,-0.203 0.348,-0.113 0.348,0 C 0.348,0.131 0.242,0.236 0.111,0.236 C -0.02,0.236 -0.125,0.131 -0.125,0 C -0.125,-0.037 -0.113,-0.072 -0.098,-0.104 L -1.852,0.729 C -2.135,0.864 -2.467,0.749 -2.609,0.475 L 2.174,-1.799 C 2.297,-1.516 2.176,-1.184 1.895,-1.051"
         style="fill:#ffffff;fill-opacity:1;fill-rule:nonzero;stroke:none"
         id="path6094" />
    </g>
    <g
       id="g6096"
       transform="matrix(25.889968,0,0,-25.889968,109.75296,129.30485)">
      <path
         d="M 0,0 C -0.041,-0.248 0.08,-0.502 0.318,-0.615 L 4.064,-2.396 C 4.303,-2.51 4.578,-2.443 4.742,-2.256 L 0,0 z"
         style="fill:#ffffff;fill-opacity:1;fill-rule:nonzero;stroke:none"
         id="path6098" />
    </g>
  </g>
</svg>
